packages/foundations/icons/Education/Molecule.svg

<svg width="24" height="24" viewBox="0 0 24 24" fill="none" xmlns="http://www.w3.org/2000/svg">
<g clip-path="url(#clip0_1_10100)">
<path fill-rule="evenodd" clip-rule="evenodd" d="M12.2321 3.36433C16.758 0.164412 21.0033 -1.01074 23.007 0.992999C25.0449 3.03086 23.7946 7.38726 20.4704 11.9994C23.7945 16.6122 25.045 20.969 23.007 23.007C20.969 25.045 16.6122 23.7945 11.9998 20.4698C7.38724 23.7947 3.03084 25.0449 0.992983 23.007C-1.045 20.969 0.205498 16.6122 3.53017 11.9998C0.205347 7.38726 -1.04488 3.03086 0.992983 0.992999L1.12087 0.872119C3.20924 -0.993016 7.48219 0.27352 12.0004 3.53033L12.2321 3.36433ZM19.1848 13.6701L19.135 13.7296C18.3537 14.6791 17.4919 15.6285 16.5602 16.5602C15.6285 17.4919 14.6791 18.3537 13.7296 19.135L13.6701 19.1848C13.9001 19.3431 14.1284 19.4954 14.3545 19.6415L14.8799 19.9722L15.3961 20.2799C15.5665 20.3785 15.7352 20.4732 15.9019 20.5639L16.3959 20.8241C16.4772 20.8655 16.558 20.9058 16.6382 20.9451L17.1126 21.1687C19.215 22.119 20.8722 22.3134 21.5928 21.5928C22.3133 20.8723 22.119 19.215 21.1687 17.1126L20.9451 16.6382C20.9058 16.558 20.8655 16.4773 20.8241 16.396L20.5639 15.9019C20.4732 15.7352 20.3785 15.5665 20.2798 15.3961L19.9722 14.8799L19.6414 14.3545C19.4954 14.1284 19.3431 13.9001 19.1848 13.6701ZM4.81574 13.6697L4.59173 13.9996L4.35855 14.3545L4.02778 14.8799L3.72015 15.3961C3.47355 15.8221 3.25146 16.2372 3.05489 16.6382L2.83132 17.1126C1.88099 19.215 1.68665 20.8723 2.4072 21.5928C3.12775 22.3134 4.78498 22.119 6.88742 21.1687L7.36176 20.9451C7.76282 20.7486 8.17789 20.5265 8.60387 20.2799L9.12007 19.9722L9.64553 19.6415C9.87174 19.4953 10.1002 19.3429 10.3304 19.1845L10.2704 19.135C9.32092 18.3537 8.37152 17.4919 7.4398 16.5602C6.48845 15.6089 5.61008 14.6391 4.81574 13.6697ZM12.0012 6.04871C10.9554 6.87481 9.8942 7.81384 8.85401 8.85402L8.58117 9.1297C7.64922 10.0811 6.80222 11.0473 6.04906 12.0007L6.12305 12.0926C6.93101 13.108 7.84491 14.1369 8.85401 15.146C9.95485 16.2468 11.0792 17.2344 12.1839 18.0947L11.9993 17.9509C13.0449 17.1249 14.106 16.186 15.146 15.146L15.4188 14.8703C16.3508 13.9189 17.1978 12.9527 17.9509 11.9993C17.1245 10.9546 16.1858 9.89382 15.146 8.85402C14.1369 7.84492 13.108 6.93102 12.0926 6.12307L12.0012 6.04871ZM12 10C13.1046 10 14 10.8954 14 12C14 13.1046 13.1046 14 12 14C10.8954 14 10 13.1046 10 12C10 10.8954 10.8954 10 12 10ZM21.5928 2.40721C20.8722 1.68666 19.215 1.881 17.1126 2.83134L16.6382 3.0549C16.2372 3.25147 15.8221 3.47356 15.3961 3.72017L14.8799 4.02779L14.3545 4.35856C14.1282 4.50471 13.8998 4.65708 13.6696 4.81555C14.6389 5.60994 15.6088 6.48838 16.5602 7.43981C17.4919 8.37154 18.3537 9.32094 19.135 10.2704L19.1845 10.3304C19.3429 10.1002 19.4953 9.87176 19.6414 9.64555L19.9722 9.12008L20.2798 8.60388C20.5264 8.17791 20.7485 7.76283 20.9451 7.36178L21.1687 6.88744C22.119 4.785 22.3133 3.12776 21.5928 2.40721ZM10.1791 4.71209C6.59798 2.28023 3.47468 1.33973 2.4072 2.40721C1.33972 3.47469 2.28022 6.598 4.71208 10.1791L4.81609 10.3291L4.86498 10.2704C5.49007 9.51083 6.16659 8.7513 6.88924 8.00083L7.4398 7.43981C8.37152 6.50808 9.32092 5.64635 10.2704 4.865L10.3291 4.8161L10.1791 4.71209Z" fill="#3D474D"/>
</g>
<defs>
<clipPath id="clip0_1_10100">
<rect width="24" height="24" fill="white"/>
</clipPath>
</defs>
</svg>

<svg xmlns="http://www.w3.org/2000/svg" fill="none" viewBox="0 0 24 24" width="100%" height="100%">
  <g clip-path="url(#a)">
    <path fill="#3D474D" fill-rule="evenodd" d="M12.232 3.364C16.758.164 21.003-1.01 23.007.993c2.038 2.038.788 6.394-2.537 11.006 3.325 4.613 4.575 8.97 2.537 11.008-2.038 2.038-6.395.787-11.007-2.537-4.613 3.325-8.97 4.575-11.007 2.537C-1.045 20.969.205 16.612 3.53 12 .205 7.387-1.045 3.03.993.993l.128-.12C3.209-.994 7.482.272 12 3.53l.231-.166Zm6.953 10.306-.05.06a39.616 39.616 0 0 1-2.575 2.83 39.616 39.616 0 0 1-2.83 2.575l-.06.05c.23.158.458.31.684.457l.526.33.516.308c.17.098.34.193.506.284l.494.26.242.121.475.224c2.102.95 3.76 1.144 4.48.424.72-.72.526-2.378-.424-4.48l-.224-.475-.12-.242-.261-.494c-.09-.167-.186-.335-.284-.506l-.308-.516-.33-.526a27.967 27.967 0 0 0-.457-.684Zm-14.37 0-.223.33-.233.354-.331.526-.308.516a20.49 20.49 0 0 0-.665 1.242l-.224.475c-.95 2.102-1.144 3.76-.424 4.48.72.72 2.378.526 4.48-.424l.475-.224c.4-.196.816-.419 1.242-.665l.516-.308.526-.33c.226-.147.454-.3.684-.457l-.06-.05a39.624 39.624 0 0 1-2.83-2.575 39.572 39.572 0 0 1-2.624-2.89Zm7.186-7.621a36.237 36.237 0 0 0-3.147 2.805l-.273.276A36.08 36.08 0 0 0 6.05 12l.074.093a36.303 36.303 0 0 0 2.731 3.053 36.12 36.12 0 0 0 3.33 2.949L12 17.951a36.241 36.241 0 0 0 3.147-2.805l.273-.276A36.057 36.057 0 0 0 17.95 12a36.433 36.433 0 0 0-2.805-3.146 36.301 36.301 0 0 0-3.053-2.73L12 6.048ZM12 10a2 2 0 1 1 0 4 2 2 0 0 1 0-4Zm9.593-7.593c-.72-.72-2.378-.526-4.48.424l-.475.224c-.4.196-.816.419-1.242.665l-.516.308-.526.33c-.226.147-.454.3-.684.458a39.362 39.362 0 0 1 2.89 2.624 39.63 39.63 0 0 1 2.575 2.83l.05.06c.158-.23.31-.458.456-.684l.331-.526.308-.516c.246-.426.468-.841.665-1.242l.224-.475c.95-2.102 1.144-3.76.424-4.48ZM10.179 4.712C6.598 2.28 3.475 1.34 2.407 2.407 1.34 3.475 2.28 6.598 4.712 10.18l.104.15.049-.059A39.02 39.02 0 0 1 6.889 8l.55-.56a39.63 39.63 0 0 1 2.831-2.575l.06-.049-.15-.104Z" clip-rule="evenodd"/>
  </g>
  <defs>
    <clipPath id="a">
      <path fill="#fff" d="M0 0h24v24H0z"/>
    </clipPath>
  </defs>
</svg>
